src/icons/solid/ai/transcription.svg

<svg width="24" height="24" viewBox="0 0 24 24" fill="none" xmlns="http://www.w3.org/2000/svg">
<g clip-path="url(#clip0_1_3631)">
<path fill-rule="evenodd" clip-rule="evenodd" d="M18.4294 1C18.7687 1 19.0566 1.23339 19.1286 1.56827C19.4576 3.24262 20.7944 4.57196 22.4294 4.89668C22.8098 4.97786 23.0669 5.34317 22.9846 5.71863C22.9229 5.99262 22.707 6.20572 22.4294 6.26661C20.7944 6.59133 19.4576 7.91052 19.1286 9.59502C19.0566 9.97048 18.6761 10.2242 18.2957 10.1531C18.0078 10.1024 17.7918 9.87915 17.7301 9.59502C17.4011 7.92066 16.0643 6.59133 14.4293 6.26661C14.0489 6.18542 13.7918 5.82011 13.8741 5.44465C13.9358 5.17066 14.1517 4.95756 14.4293 4.89668C16.0643 4.57196 17.4011 3.24262 17.7301 1.56827C17.7918 1.24354 18.09 1 18.4294 1ZM10.5733 8.45849C10.5733 7.94096 10.1517 7.52491 9.62727 7.52491C9.10285 7.52491 8.68125 7.94096 8.68125 8.45849V22.0664C8.68125 22.5839 9.10285 23 9.62727 23C10.1517 23 10.5733 22.5839 10.5733 22.0664V8.45849ZM13.4628 9.51384C13.9872 9.51384 14.4088 9.92989 14.4088 10.4474V20.0673C14.4088 20.5849 13.9872 21.0009 13.4628 21.0009C12.9383 21.0009 12.5167 20.5849 12.5167 20.0673V10.4474C12.5167 9.92989 12.9383 9.51384 13.4628 9.51384ZM18.2545 12.7509C18.2545 12.2334 17.833 11.8173 17.3085 11.8173C16.7841 11.8173 16.3625 12.2334 16.3625 12.7509V17.774C16.3625 18.2915 16.7841 18.7076 17.3085 18.7076C17.833 18.7076 18.2545 18.2915 18.2545 17.774V12.7509ZM5.79179 10.9548C6.31621 10.9548 6.7378 11.3708 6.7378 11.8884V18.6264C6.7378 19.1439 6.31621 19.56 5.79179 19.56C5.26736 19.56 4.84577 19.1439 4.84577 18.6264V11.8884C4.84577 11.3708 5.26736 10.9548 5.79179 10.9548ZM2.89204 9.64576C2.89204 9.12823 2.47044 8.71218 1.94602 8.71218C1.4216 8.71218 1 9.12823 1 9.64576V20.869C1 21.3865 1.4216 21.8026 1.94602 21.8026C2.47044 21.8026 2.89204 21.3865 2.89204 20.869V9.64576Z" fill="#1D1B20"/>
</g>
<defs>
<clipPath id="clip0_1_3631">
<rect width="24" height="24" fill="white"/>
</clipPath>
</defs>
</svg>

<svg xmlns="http://www.w3.org/2000/svg" width="24" height="24" fill="none" viewBox="0 0 24 24"><g clip-path="url(#a)"><path fill="currentColor" fill-rule="evenodd" d="M18.43 1c.339 0 .627.233.699.568.329 1.675 1.665 3.004 3.3 3.329.38.08.638.446.556.822a.73.73 0 0 1-.556.548 4.24 4.24 0 0 0-3.3 3.328.72.72 0 0 1-.833.558.71.71 0 0 1-.566-.558c-.329-1.674-1.666-3.004-3.3-3.328-.381-.082-.638-.447-.556-.822a.73.73 0 0 1 .555-.548c1.635-.325 2.972-1.654 3.301-3.329a.714.714 0 0 1 .7-.568m-7.857 7.458a.937.937 0 0 0-.946-.933.937.937 0 0 0-.946.933v13.608c0 .518.422.934.946.934a.937.937 0 0 0 .946-.934zm2.89 1.056c.524 0 .946.416.946.933v9.62a.937.937 0 0 1-.946.934.937.937 0 0 1-.946-.934v-9.62c0-.517.421-.933.946-.933m4.792 3.237a.937.937 0 0 0-.947-.934.937.937 0 0 0-.945.934v5.023c0 .517.421.934.945.934a.937.937 0 0 0 .947-.934zM5.792 10.955c.524 0 .946.416.946.933v6.738a.937.937 0 0 1-.946.934.937.937 0 0 1-.946-.934v-6.738c0-.517.421-.933.946-.933m-2.9-1.31a.937.937 0 0 0-.946-.933.937.937 0 0 0-.946.934v11.223c0 .518.422.934.946.934a.937.937 0 0 0 .946-.934z" clip-rule="evenodd"/></g><defs><clipPath id="a"><path fill="currentColor" d="M0 0h24v24H0z"/></clipPath></defs></svg>
